images/icons-shopify.svg

<svg height="240" viewBox="0 0 48 48" width="240" xmlns="http://www.w3.org/2000/svg"><path d="m37.216 11.78c-.023-.211-.211-.305-.351-.305s-3.21-.234-3.21-.234-2.132-2.132-2.39-2.343c-.234-.234-.68-.164-.867-.117-.023 0-.469.141-1.195.375-.726-2.086-1.968-3.984-4.194-3.984h-.211c-.611-.797-1.407-1.172-2.063-1.172-5.155 0-7.639 6.444-8.412 9.725-2.015.633-3.445 1.054-3.609 1.125-1.125.351-1.148.375-1.289 1.429-.117.797-3.046 23.456-3.046 23.456l22.8 4.265 12.373-2.671c.023-.047-4.312-29.338-4.336-29.549zm-9.279-2.297c-.562.164-1.242.375-1.921.609v-.421c0-1.265-.164-2.296-.469-3.117 1.171.141 1.898 1.43 2.39 2.929zm-3.82-2.671c.305.797.516 1.922.516 3.468v.234c-1.265.398-2.601.797-3.984 1.242.773-2.952 2.25-4.405 3.468-4.944zm-1.5-1.453c.234 0 .469.094.656.234-1.664.773-3.421 2.718-4.148 6.655-1.101.351-2.156.656-3.163.984.844-2.999 2.953-7.873 6.655-7.873z" fill="#7cb342"/><path d="m36.865 11.428c-.141 0-3.21-.234-3.21-.234s-2.132-2.132-2.39-2.343c-.095-.094-.212-.141-.305-.141l-1.711 35.29 12.373-2.671s-4.335-29.338-4.359-29.549c-.094-.211-.258-.305-.398-.352z" fill="#558b2f"/><path d="m24.792 18.593-1.475 4.449s-1.337-.715-2.927-.715c-2.374 0-2.489 1.498-2.489 1.867 0 2.028 5.301 2.812 5.301 7.583 0 3.757-2.374 6.177-5.578 6.177-3.872 0-5.808-2.397-5.808-2.397l1.037-3.411s2.028 1.752 3.734 1.752c1.129 0 1.59-.876 1.59-1.521 0-2.651-4.333-2.766-4.333-7.145 0-3.665 2.628-7.214 7.952-7.214 1.981-.024 2.996.575 2.996.575z" fill="#fff"/></svg>

<svg xmlns="http://www.w3.org/2000/svg"  viewBox="0 0 48 48" width="240px" height="240px"><path fill="#7cb342" d="M37.216,11.78c-0.023-0.211-0.211-0.305-0.351-0.305s-3.21-0.234-3.21-0.234s-2.132-2.132-2.39-2.343	c-0.234-0.234-0.68-0.164-0.867-0.117c-0.023,0-0.469,0.141-1.195,0.375c-0.726-2.086-1.968-3.984-4.194-3.984h-0.211	C24.187,4.375,23.391,4,22.735,4c-5.155,0-7.639,6.444-8.412,9.725c-2.015,0.633-3.445,1.054-3.609,1.125	c-1.125,0.351-1.148,0.375-1.289,1.429c-0.117,0.797-3.046,23.456-3.046,23.456L29.179,44l12.373-2.671	C41.575,41.282,37.24,11.991,37.216,11.78z M27.937,9.483c-0.562,0.164-1.242,0.375-1.921,0.609V9.671	c0-1.265-0.164-2.296-0.469-3.117C26.718,6.695,27.445,7.984,27.937,9.483L27.937,9.483z M24.117,6.812	c0.305,0.797,0.516,1.922,0.516,3.468v0.234c-1.265,0.398-2.601,0.797-3.984,1.242C21.422,8.804,22.899,7.351,24.117,6.812	L24.117,6.812z M22.617,5.359c0.234,0,0.469,0.094,0.656,0.234c-1.664,0.773-3.421,2.718-4.148,6.655	c-1.101,0.351-2.156,0.656-3.163,0.984C16.806,10.233,18.915,5.359,22.617,5.359z"/><path fill="#558b2f" d="M36.865,11.428c-0.141,0-3.21-0.234-3.21-0.234s-2.132-2.132-2.39-2.343	C31.17,8.757,31.053,8.71,30.96,8.71L29.249,44l12.373-2.671c0,0-4.335-29.338-4.359-29.549	C37.169,11.569,37.005,11.475,36.865,11.428z"/><path fill="#fff" d="M24.792,18.593l-1.475,4.449c0,0-1.337-0.715-2.927-0.715c-2.374,0-2.489,1.498-2.489,1.867	c0,2.028,5.301,2.812,5.301,7.583c0,3.757-2.374,6.177-5.578,6.177c-3.872,0-5.808-2.397-5.808-2.397l1.037-3.411	c0,0,2.028,1.752,3.734,1.752c1.129,0,1.59-0.876,1.59-1.521c0-2.651-4.333-2.766-4.333-7.145c0-3.665,2.628-7.214,7.952-7.214	C23.777,17.994,24.792,18.593,24.792,18.593z"/></svg>
